escal/trunk/images/sitemap.svg

<?xml version="1.0" encoding="UTF-8" standalone="no"?>
<!-- Created with Inkscape (http://www.inkscape.org/) -->
<svg id="svg8" xmlns:rdf="http://www.w3.org/1999/02/22-rdf-syntax-ns#" xmlns="http://www.w3.org/2000/svg" height="300" width="300" version="1.1" xmlns:cc="http://creativecommons.org/ns#" xmlns:dc="http://purl.org/dc/elements/1.1/" viewBox="0 0 79.374998 79.375002">
 <metadata id="metadata5">
  <rdf:RDF>
   <cc:Work rdf:about="">
    <dc:format>image/svg+xml</dc:format>
    <dc:type rdf:resource="http://purl.org/dc/dcmitype/StillImage"/>
    <dc:title/>
   </cc:Work>
  </rdf:RDF>
 </metadata>
 <g id="layer1" transform="translate(0 -217.62)">
  <path id="path863-7-3" d="m80 0v140h65v30h-110v10 30h-35v90h90v-90h-45v-30h100v30h-40v90h90v-90h-40v-30h100v30h-45v90h90v-90h-35v-30-10h-10-100v-30h65v-140h-140z" transform="matrix(.26458 0 0 .26458 0 217.62)" fill="#369"/>
 </g>
</svg>

<?xml version="1.0" encoding="UTF-8" standalone="no"?>
<!-- Created with Inkscape (http://www.inkscape.org/) -->

<svg
   xmlns:dc="http://purl.org/dc/elements/1.1/"
   xmlns:cc="http://creativecommons.org/ns#"
   xmlns:rdf="http://www.w3.org/1999/02/22-rdf-syntax-ns#"
   xmlns:svg="http://www.w3.org/2000/svg"
   xmlns="http://www.w3.org/2000/svg"
   xmlns:sodipodi="http://sodipodi.sourceforge.net/DTD/sodipodi-0.dtd"
   xmlns:inkscape="http://www.inkscape.org/namespaces/inkscape"
   width="31.999998"
   height="31.999998"
   viewBox="0 0 31.999998 31.999998"
   version="1.1"
   id="SVGRoot"
   inkscape:version="0.92.3 (2405546, 2018-03-11)"
   sodipodi:docname="sitemap.svg">
  <sodipodi:namedview
     id="base"
     pagecolor="#ffffff"
     bordercolor="#666666"
     borderopacity="1.0"
     inkscape:pageopacity="0.0"
     inkscape:pageshadow="2"
     inkscape:zoom="8"
     inkscape:cx="16.499999"
     inkscape:cy="18.624999"
     inkscape:document-units="px"
     inkscape:current-layer="layer1"
     showgrid="false"
     inkscape:window-width="1549"
     inkscape:window-height="845"
     inkscape:window-x="51"
     inkscape:window-y="27"
     inkscape:window-maximized="1"
     inkscape:grid-bbox="true" />
  <defs
     id="defs8492" />
  <metadata
     id="metadata8495">
    <rdf:RDF>
      <cc:Work
         rdf:about="">
        <dc:format>image/svg+xml</dc:format>
        <dc:type
           rdf:resource="http://purl.org/dc/dcmitype/StillImage" />
        <dc:title></dc:title>
      </cc:Work>
    </rdf:RDF>
  </metadata>
  <g
     id="layer1"
     inkscape:groupmode="layer"
     inkscape:label="Calque 1"
     transform="translate(0.4999994,-2.6250003)">
    <g
       id="layer1-8"
       transform="matrix(0.40315467,0,0,0.40315467,-0.4999994,-85.109519)">
      <path
         style="fill:#336699"
         inkscape:connector-curvature="0"
         id="path863-7-3"
         d="m 80,0 v 140 h 65 v 30 H 35 v 10 30 H 0 v 90 H 90 V 210 H 45 v -30 h 100 v 30 h -40 v 90 h 90 v -90 h -40 v -30 h 100 v 30 h -45 v 90 h 90 V 210 H 265 V 180 170 H 255 155 v -30 h 65 V 0 Z"
         transform="matrix(0.26458,0,0,0.26458,0,217.62)" />
    </g>
  </g>
</svg>
